src/assets/journey/onbording.svg

<svg fill="none" height="100" viewBox="0 0 100 100" width="100" xmlns="http://www.w3.org/2000/svg" xmlns:xlink="http://www.w3.org/1999/xlink"><linearGradient id="a" gradientUnits="userSpaceOnUse" x1="50" x2="50" y1="6" y2="94"><stop offset="0" stop-color="#2ff1af"/><stop offset="1" stop-color="#fff" stop-opacity="0"/></linearGradient><linearGradient id="b" gradientUnits="userSpaceOnUse" x1="50" x2="50" y1="6" y2="99.6279"><stop offset="0" stop-color="#00ee9d"/><stop offset="1" stop-color="#b5ffe6" stop-opacity=".03"/></linearGradient><g stroke-width="2"><path d="m3 7h94v86h-94z" fill="url(#a)" stroke="url(#b)"/><rect height="20" rx="10" stroke="#41e8b0" width="20" x="14" y="29"/><path d="m65 51h22v22h-22z" stroke="#9ef3d6"/><path d="m35 39h15" stroke="#41e8b0"/><path d="m49 39v22" stroke="#41e8b0"/></g><path d="m65.7071 62.7071c.3905-.3905.3905-1.0237 0-1.4142l-6.364-6.364c-.3905-.3905-1.0236-.3905-1.4142 0-.3905.3906-.3905 1.0237 0 1.4142l5.6569 5.6569-5.6569 5.6569c-.3905.3905-.3905 1.0236 0 1.4142.3906.3905 1.0237.3905 1.4142 0zm-17.7071.2929h17v-2h-17z" fill="#41e8b0"/></svg>

<svg width="100" height="100" viewBox="0 0 100 100" fill="none" xmlns="http://www.w3.org/2000/svg">
<rect x="3" y="7" width="94" height="86" fill="url(#paint0_linear_24_2590)" stroke="url(#paint1_linear_24_2590)" stroke-width="2"/>
<rect x="14" y="29" width="20" height="20" rx="10" stroke="#41E8B0" stroke-width="2"/>
<rect x="65" y="51" width="22" height="22" stroke="#9EF3D6" stroke-width="2"/>
<line x1="35" y1="39" x2="50" y2="39" stroke="#41E8B0" stroke-width="2"/>
<line x1="49" y1="39" x2="49" y2="61" stroke="#41E8B0" stroke-width="2"/>
<path d="M65.7071 62.7071C66.0976 62.3166 66.0976 61.6834 65.7071 61.2929L59.3431 54.9289C58.9526 54.5384 58.3195 54.5384 57.9289 54.9289C57.5384 55.3195 57.5384 55.9526 57.9289 56.3431L63.5858 62L57.9289 67.6569C57.5384 68.0474 57.5384 68.6805 57.9289 69.0711C58.3195 69.4616 58.9526 69.4616 59.3431 69.0711L65.7071 62.7071ZM48 63L65 63V61L48 61V63Z" fill="#41E8B0"/>
<defs>
<linearGradient id="paint0_linear_24_2590" x1="50" y1="6" x2="50" y2="94" gradientUnits="userSpaceOnUse">
<stop stop-color="#2FF1AF"/>
<stop offset="1" stop-color="white" stop-opacity="0"/>
</linearGradient>
<linearGradient id="paint1_linear_24_2590" x1="50" y1="6" x2="50" y2="99.6279" gradientUnits="userSpaceOnUse">
<stop stop-color="#00EE9D"/>
<stop offset="1" stop-color="#B5FFE6" stop-opacity="0.03"/>
</linearGradient>
</defs>
</svg>
